X:1
T:Steps
T:Steps
T:(A Modern Progression)
T:By PETE WENDLING and MAX KORTLANDER 
T:Copyright 1924 by Pete Wendling &amp; Max Kortlander
T:Copyright 1924 by Pete Wendling &amp; Max Kortlander
T:Copyright 1924 by Pete Wendling &amp; Max Kortlander
C:By Pete Wendling
Z:Copyright 1924 by Pete Wendling & Max Kortlander
%%score { ( 1 3 ) | 2 }
L:1/8
Q:1/4=175
M:2/2
K:Ab
V:1 treble nm="Piano" snm="Pno."
V:3 treble 
V:2 bass 
V:1
"^Moderato"!f! (3D/=E/^F/ | !>!G(=E=D)!>!!courtesy!_A (F_E)!>!=A^F | %2
 =E(!>!!courtesy!_B=G=F) (!>!=B^G^F)(!>!=c | =A=G)!>!!courtesy!_d(_B _A)!>!=d(=B=A | %4
 !>!_e2) z2 !arpeggio!!^![egb!courtesy!_d'e']2 z2 |:!mf!{efg} (!>!afe(!>!a) fe!>!a)(f | %6
 e)(!>!afe a3) (3f/g/a/ | (!>!b=gf)(!>!b gf)(!>!bg | f)b(=gf) b3 (3b/c'/=d'/ | %9
 (!>!e'c'b)(!>!e' c'b)(!>!e'c' | b)(!>!e'c'b) !>!e'2!8va(! (3e'f'g' | %11
"_L.H." !>!a'>b'!>!a'>f' !>!e'>f'!>!e'>c' | !>!b>c'!>!b>a !>!f>g!>!f>e!8va)! | %13
{efg} (!>!afe)(!>!a fe)(!>!af | e)(!>!afe) a3 (3f/g/a/ | (!>!b=gf)(!>!b gf)(!>!bg | %16
 f)b(=gf) b3 (3b/c'/=d'/ | (!>!e'c'b)(!>!e' c'b)(!>!e'c' | b)(!>!e'c'b) !>!e'2 (3efg | %19
 !>!a>(fe>c) [=DA_c] !>![_DGB]3 |1 !^![CEA]2!f!{/f} !trill(!Te2- !trill)!e=d/e/ =e/f/^f/g/ :|2 %21
 !^![CEA]2"^(loco)" z !>![A,A]z!>![B,B]z!>![Cc] |: %22
[K:Db]!f!!ff!"_-" z2 !>![dgbd']4"_L.H." !>![Bdgb]2 | !>![Adfa]2 z !>![A,A]z!>![B,B]z!>![Cc] | %24
 z2 !>![dgbd']4 !>![Bdgb]2 | !>![Adfa]2 z !>![A,A]z!>![B,B]z!>![Cc] | %26
 z2 !>![dgbd']4"_L.H." !>![Bdgb]2 | !>![Adfa]2 .b!>![Adfa]- [Adfa].f !>![FBd]2 | %28
 !>![=GBde]2 f!>![GBde]- [GBde]d !>![GB]2 | !^![_Gce]2 z !>![A,A]z!>![B,B]z!>![Cc] | %30
 z2 !>![dgbd']4"_L.H." !>![Bdgb]2 | !>![Adfa]2 z !>![A,A]z!>![B,B]z!>![Cc] | %32
 z2"_L.H." !>![dgbd']4 !>![Bdgb]2 | !>![Adfa]2 z !>![A,A]z!>![B,B]z!>![Cc] | %34
 z2 !>![dgbd']4"_L.H." !>![Bdgb]2 | !>![Adfa]2 b!>![Adfa]- [Adfa]f !>![FBd]2 | %36
 !>![=GBde]2 .f!>![_Gce]- [Gce].c !>![GA]2 |1 .[FAd]2 z !>![A,A]z!>![B,B]z!>![Cc] :|2 %38
!<(! (([FAd]4!<)!!sfz! !^![dfad']2)) z (3D/=E/^F/ || %39
[K:Ab]!f! !>!G(=E=D)!>!!courtesy!_A (F_E)!>!=A(^F | =E)(!>!!courtesy!_B=G=F) (!>!=B^G^F)(!>!=c | %41
 =A=G)!>!!courtesy!_d(_B _A)!>!=d(=B=A | !>!_e2) z2 !arpeggio!!^![egb!courtesy!_d'e']2 z2 || %43
!ff! !>!c' z2 !>!c' z2 !>!c' z | z !>!c' z2 !>!c'4 | !>!=d' z2 !>!d' z2 !>!d' z | %46
 z !>!=d' z2 !>!d'4 | !>!g' z2 !>!g' z2 !>!g' z | z !>!g' z2 !>!g'4 | %49
!<(!!8va(! z .[bb']!<)!z.[ff']z.[ff']z.[cc']!8va)! | %50
"_L.H.""^loco" z .[Bb]z.[Ff]z!>(!.[Ff]z.[Ff]!>)! |!ff! !>!c' z2 !>!c' z2 !>!c' z | %52
 z !>!c' z2 !>!c'4 | !>!=d' z2 !>!d' z2 !>!d' z | z !>!=d' z2 !>!d'4 | !>!g' z2 !>!g' z2 !>!g' z | %56
 z !>!g' z2 !>!g'3!8va(! (3e'/f'/g'/ | !>!a'>(f'e'>c') !>![=da_c'] !>![_dgb]3 | %58
!<(! [cea]4!<)! !^![ac'e'a']2 z2!8va)! |] %59
V:2
 x | !>![=D,G,=B,]4 !>![!courtesy!_E,!courtesy!_A,=C]2 !>![=E,=A,^C]2- | %2
 [E,A,C]2 !>![F,_B,=D]2 !>![^F,=B,^D]4 | %3
 !>![G,C=E]2 !>![!courtesy!_A,!courtesy!_DF]4 !>![=A,=D^F]2 | %4
 !>![!courtesy!_B,!courtesy!_EG]2 z2 !arpeggio!!^![E,,B,,G,]2 z2 |: %5
 !>![A,,A,]2 [E,A,C]2 !>![E,,E,]2 [E,A,C]2 | !>![C,,C,]2 [E,A,C]2 !>![A,,,A,,]2 [E,A,C]2 | %7
 !>![B,,B,]2 [F,A,B,=D]2 !>![F,,F,]2 [F,A,B,D]2 | %8
 !>![=D,,=D,]2 [F,A,B,=D]2 !>![B,,,B,,]2 [F,A,B,D]2 | !>![E,E]2 [B,_DEG]2 !>![B,,B,]2 [B,DEG]2 | %10
 !>![G,,G,]2 [B,DEG]2 [E,,E,]2 [B,DEG]2 | %11
[I:staff -1] !>![EAc]2 !>![=DA=B]2 !>![_DG_B]2 !>![C^F=A]2 | %12
 !>![=G,^C=E]2 !>![_G,=C_E]2[I:staff +1] [=F,_A,=D]2 !>![!courtesy!_E,=G,_D]2 | %13
 !>![A,,A,]2 [E,A,C]2 !>![E,,E,]2 [E,A,C]2 | !>![C,,C,]2 [E,A,C]2 !>![A,,,A,,]2 [E,A,C]2 | %15
 !>![B,,B,]2 [F,A,B,=D]2 !>![F,,F,]2 [F,A,B,D]2 | %16
 !>![=D,,=D,]2 [F,A,B,=D]2 !>![B,,,B,,]2 [F,A,B,D]2 | !>![E,E]2 [B,_DEG]2 !>![B,,B,]2 [B,DEG]2 | %18
 !>![G,,G,]2 [B,DEG]2 !>![E,,E,]2 [B,DEG]2 | !arpeggio!!>![A,,E,C] z z2 !>![_F,,_F,]2 [E,,E,]2 |1 %20
 !^![A,,A,]2[K:treble] ((!>![=A,CE^F]2 [B,DEG])) z z2 :|2 %21
 !^![A,,A,]2 !>![=G,,=G,]z!>![=A,,=A,]z!>![=B,,=B,] z |:[K:Db] !>![D,D]2 x2 x4 | %23
 x2 !>![=G,,=G,]z!>![=A,,=A,]z!>![=B,,=B,] z | !>![D,D]2 x2"^L.H." x4 | %25
 x2 !>![=G,,=G,]z!>![=A,,=A,]z!>![=B,,=B,] z | !>![D,D]2 x2 x4 | %27
 !>![F,F]2 [A,DF]2 [B,,B,]2 [F,B,D]2 | [E,,E,]2 [E,=G,B,D]2 [E,,E,]2 [E,G,B,D]2 | %29
 !^![A,,A,]2 !>![=G,,=G,]z!>![=A,,=A,]z!>![=B,,=B,] z | !>![D,D]2 x2 x4 | %31
 x2 !>![=G,,=G,]z!>![=A,,=A,]z!>![=B,,=B,] z | !>![D,D]2 x2 x4 | %33
 x2 !>![=G,,=G,]z!>![=A,,=A,]z!>![=B,,=B,] z | [D,D]2 x2 x4 | [F,F]2 [A,DF]2 [B,,B,]2 [F,B,D]2 | %36
 [E,,E,]2 [E,=G,B,D]2 A,,2 [E,A,C]2 |1 .[D,D]2 !>![=G,,=G,]z!>![=A,,=A,]z!>![=B,,=B,] z :|2 %38
 !>![D,D]2 !>![A,,A,]2 !arpeggio!!^![D,,A,,F,]2 z z || %39
[K:Ab] !>!!tenuto![=D,G,=B,]4 !>![!courtesy!_E,!courtesy!_A,=C]2 !>![=E,=A,^C]2- | %40
 [E,A,C]2 !>![F,_B,=D]2 !>!!tenuto![^F,=B,^D]4 | %41
 !>![G,C=E]2 !>!!tenuto![!courtesy!_A,!courtesy!_DF]4 !>![=A,=D^F]2 | %42
 [!courtesy!_B,!courtesy!_EG]2 z2 !arpeggio!!^![E,,B,,G,]2 z2 || %43
 [A,,A,]4 !>![F,,F,]2 !>![E,,E,]2- | [E,,E,]2 !>![C,,C,]2 [A,,,A,,]4 | %45
 [B,,B,]4 !>![G,,G,]2 !>![F,,F,]2- | [F,,F,]2 !>![=D,,=D,]2 [B,,,B,,]4 | %47
 [E,E]4 !>![C,C]2 !>![B,,B,]2- | [B,,B,]2 !>![G,,G,]2 [E,,E,]4 | .[Aa]z.[Aa]z.[Ee]z.[Ee] z | %50
 x4 E,zE, z | [A,,A,]4 !>![F,,F,]2 !>![E,,E,]2- | [E,,E,]2 !>![C,,C,]2 [A,,,A,,]4 | %53
 [B,,B,]4 !>![G,,G,]2 !>![F,,F,]2- | [F,,F,]2 !>![=D,,=D,]2 [B,,,B,,]4 | %55
 [E,E]4 !>![C,C]2 !>![B,,B,]2- | [B,,B,]2 !>![G,,G,]2 !>![E,,E,]4 | %57
 !arpeggio!!>![A,,E,C] z z2 !>![_F,,_F,]2 !>![E,,E,]2 | !>![A,,A,]2 !>![E,,E,]2 !^![A,,,A,,]2 z2 |] %59
V:3
 x | x8 | x8 | x8 | x8 |: x8 | x8 | x8 | x8 | x8 | x6!8va(! x2 | x8 | x8!8va)! | x8 | x8 | x8 | %16
 x8 | x8 | x8 | x8 |1 x8 :|2 x8 |:[K:Db] x2 !>![B,B]4 !>![G,G]2 | !>![F,F]2 x6 | %24
 x2 !>![B,B]4 !>![G,G]2 | !>![F,F]2 x6 | x2 !>![B,B]4 !>![G,G]2 | x8 | x8 | x8 | %30
 x2 !>![B,B]4 !>![G,G]2 | !>![F,F]2 x6 | x2 !>![B,B]4 !>![G,G]2 | !>![F,F]2 x6 | %34
 x2 !>![B,B]4 !>![G,G]2 | x8 | x8 |1 x8 :|2 x8 ||[K:Ab] x8 | x8 | x8 | x8 || %43
 !>!a(fe)(!>!a fe)!>!af | e!>!a(fe) !>!a4 | !>!b(gf)!>!b (gf)!>!b(g | f)!>!b(gf) !>!b4 | %47
 (!>!e'c'b)!>!e' (c'b)!>!e'(c' | b)!>!e'(c'b) !>!e'4 |!8va(! x8!8va)! | [A,A]z[A,A] z E z E x | %51
 !>!a(fe)(!>!a fe)!>!af | e!>!a(fe) !>!a4 | !>!b(gf)!>!b (gf)!>!b(g | f)!>!b(gf) !>!b4 | %55
 (!>!e'c')(b!>!e') (c'b)(!>!e'(c') | b)!>!e'(c'b) !>!e'4!8va(! | x8 | x8!8va)! |] %59

